X:1
T:Saxony (Oliver), 87.87
T:Saxony (Oliver), 87.87
T:Henry Kemble Oliver (1800-1885)
T:Public Domain Courtesy of the Cyber Hymnal™
C:Henry Kemble Oliver (1800-1885)
Z:Public Domain
Z:Courtesy of the Cyber Hymnal™
%%score ( 1 2 ) ( 3 4 )
L:1/8
Q:1/4=110
M:4/4
K:F
V:1 treble 
V:2 treble 
V:3 bass 
V:4 bass 
V:1
 [Fc]2 [Fc]2 [FA]2 [CF]2 | (GF) (GA) [CF]2 C2 | [Fc]2 [Fc]2 [FA]2 [CF]2 | (GF) (GA) [CF]4 | %4
 [EG]2 [Gc]2 [FA]2 F2 | [DG]2 [Ec]2 [FA]2 [CF]2 | (fe) (dc) [Fc]3 [GB] | [FA]2 [EG]2 F4 |] %8
V:2
 x8 | C2 C2 x C2 x | x8 | C2 C2 x4 | x6 F2 | x8 | F2 F2 x4 | x4 F4 |] %8
V:3
 [F,A,]2 [F,A,]2 [F,C]2 [F,A,]2 | (B,A,) (B,C) [F,A,]2 [G,B,]2 | [A,C]2 [F,A,]2 [F,C]2 [F,A,]2 | %3
 (B,A,) (B,C) [F,A,]4 | [C,C]2 [E,C]2 [F,C]2 [A,,C]2 | [B,,G,]2 [C,G,]2 [F,A,]2 [F,A,]2 | %6
 (A,C) (B,A,) ([F,A,][G,B,][A,C])[B,D] | C2 [C,B,]2 [F,A,]4 |] %8
V:4
 x8 | C,2 C,2 x4 | x8 | C,2 C,2 x4 | x8 | x8 | F,2 F,2 x4 | C2 x6 |] %8

